images/3233031.svg

<?xml version="1.0" encoding="UTF-8"?>
<svg xmlns="http://www.w3.org/2000/svg" xmlns:xlink="http://www.w3.org/1999/xlink" width="300pt" height="300pt" viewBox="0 0 300 300" version="1.1">
<defs>
<g>
<symbol overflow="visible" id="glyph0-0">
<path style="stroke:none;" d="M 0.640625 2.296875 L 0.640625 -9.171875 L 7.140625 -9.171875 L 7.140625 2.296875 Z M 1.375 1.578125 L 6.421875 1.578125 L 6.421875 -8.4375 L 1.375 -8.4375 Z M 1.375 1.578125 "/>
</symbol>
<symbol overflow="visible" id="glyph0-1">
<path style="stroke:none;" d="M 1.28125 -9.484375 L 3 -9.484375 L 7.203125 -1.546875 L 7.203125 -9.484375 L 8.453125 -9.484375 L 8.453125 0 L 6.71875 0 L 2.515625 -7.921875 L 2.515625 0 L 1.28125 0 Z M 1.28125 -9.484375 "/>
</symbol>
<symbol overflow="visible" id="glyph0-2">
<path style="stroke:none;" d="M 5.125 -8.609375 C 4.1875 -8.609375 3.441406 -8.257812 2.890625 -7.5625 C 2.347656 -6.875 2.078125 -5.929688 2.078125 -4.734375 C 2.078125 -3.535156 2.347656 -2.585938 2.890625 -1.890625 C 3.441406 -1.203125 4.1875 -0.859375 5.125 -0.859375 C 6.050781 -0.859375 6.785156 -1.203125 7.328125 -1.890625 C 7.878906 -2.585938 8.15625 -3.535156 8.15625 -4.734375 C 8.15625 -5.929688 7.878906 -6.875 7.328125 -7.5625 C 6.785156 -8.257812 6.050781 -8.609375 5.125 -8.609375 Z M 5.125 -9.65625 C 6.445312 -9.65625 7.503906 -9.207031 8.296875 -8.3125 C 9.097656 -7.414062 9.5 -6.222656 9.5 -4.734375 C 9.5 -3.234375 9.097656 -2.035156 8.296875 -1.140625 C 7.503906 -0.253906 6.445312 0.1875 5.125 0.1875 C 3.789062 0.1875 2.722656 -0.253906 1.921875 -1.140625 C 1.128906 -2.035156 0.734375 -3.234375 0.734375 -4.734375 C 0.734375 -6.222656 1.128906 -7.414062 1.921875 -8.3125 C 2.722656 -9.207031 3.789062 -9.65625 5.125 -9.65625 Z M 5.125 -9.65625 "/>
</symbol>
<symbol overflow="visible" id="glyph0-3">
<path style="stroke:none;" d="M 1.28125 -9.484375 L 2.5625 -9.484375 L 2.5625 -5.59375 L 7.21875 -5.59375 L 7.21875 -9.484375 L 8.5 -9.484375 L 8.5 0 L 7.21875 0 L 7.21875 -4.515625 L 2.5625 -4.515625 L 2.5625 0 L 1.28125 0 Z M 1.28125 -9.484375 "/>
</symbol>
</g>
</defs>
<g id="surface54385">
<rect x="0" y="0" width="300" height="300" style="fill:rgb(100%,100%,100%);fill-opacity:1;stroke:none;"/>
<path style="fill:none;stroke-width:1.2;stroke-linecap:butt;stroke-linejoin:miter;stroke:rgb(0%,0%,0%);stroke-opacity:1;stroke-miterlimit:10;" d="M 258.53125 223.117188 L 245.546875 213.824219 "/>
<path style="fill:none;stroke-width:1.2;stroke-linecap:butt;stroke-linejoin:miter;stroke:rgb(0%,0%,100%);stroke-opacity:1;stroke-miterlimit:10;" d="M 245.546875 213.824219 L 232.566406 204.535156 "/>
<path style="fill:none;stroke-width:1.2;stroke-linecap:butt;stroke-linejoin:miter;stroke:rgb(0%,0%,100%);stroke-opacity:1;stroke-miterlimit:10;" d="M 232.566406 204.535156 L 218.027344 211.132812 "/>
<path style="fill:none;stroke-width:1.2;stroke-linecap:butt;stroke-linejoin:miter;stroke:rgb(0%,0%,0%);stroke-opacity:1;stroke-miterlimit:10;" d="M 218.027344 211.132812 L 203.488281 217.730469 "/>
<path style="fill:none;stroke-width:1.2;stroke-linecap:butt;stroke-linejoin:miter;stroke:rgb(0%,0%,100%);stroke-opacity:1;stroke-miterlimit:10;" d="M 232.566406 204.535156 L 234.121094 188.644531 "/>
<path style="fill:none;stroke-width:1.2;stroke-linecap:butt;stroke-linejoin:miter;stroke:rgb(0%,0%,0%);stroke-opacity:1;stroke-miterlimit:10;" d="M 234.121094 188.644531 L 235.675781 172.753906 "/>
<path style=" stroke:none;fill-rule:nonzero;fill:rgb(100%,100%,100%);fill-opacity:1;" d="M 227.566406 196.535156 L 237.566406 196.535156 L 237.566406 212.535156 L 227.566406 212.535156 Z M 227.566406 196.535156 "/>
<g style="fill:rgb(0%,0%,100%);fill-opacity:1;">
  <use xlink:href="#glyph0-1" x="227.566406" y="208.911133"/>
</g>
<path style="fill:none;stroke-width:1.2;stroke-linecap:butt;stroke-linejoin:miter;stroke:rgb(0%,0%,0%);stroke-opacity:1;stroke-miterlimit:10;" d="M 237.226562 176.175781 L 251.765625 169.578125 "/>
<path style="fill:none;stroke-width:1.2;stroke-linecap:butt;stroke-linejoin:miter;stroke:rgb(100%,0%,0%);stroke-opacity:1;stroke-miterlimit:10;" d="M 251.765625 169.578125 L 266.300781 162.976562 "/>
<path style="fill:none;stroke-width:1.2;stroke-linecap:butt;stroke-linejoin:miter;stroke:rgb(0%,0%,0%);stroke-opacity:1;stroke-miterlimit:10;" d="M 234.121094 169.332031 L 248.660156 162.734375 "/>
<path style="fill:none;stroke-width:1.2;stroke-linecap:butt;stroke-linejoin:miter;stroke:rgb(100%,0%,0%);stroke-opacity:1;stroke-miterlimit:10;" d="M 248.660156 162.734375 L 263.199219 156.136719 "/>
<path style="fill:none;stroke-width:1.2;stroke-linecap:butt;stroke-linejoin:miter;stroke:rgb(0%,0%,0%);stroke-opacity:1;stroke-miterlimit:10;" d="M 235.675781 172.753906 L 209.707031 154.171875 "/>
<path style=" stroke:none;fill-rule:nonzero;fill:rgb(100%,100%,100%);fill-opacity:1;" d="M 259.75 151.558594 L 270.75 151.558594 L 270.75 167.558594 L 259.75 167.558594 Z M 259.75 151.558594 "/>
<g style="fill:rgb(100%,0%,0%);fill-opacity:1;">
  <use xlink:href="#glyph0-2" x="259.75" y="163.93457"/>
</g>
<path style="fill:none;stroke-width:1.2;stroke-linecap:butt;stroke-linejoin:miter;stroke:rgb(0%,0%,0%);stroke-opacity:1;stroke-miterlimit:10;" d="M 209.707031 154.171875 L 180.628906 167.367188 "/>
<path style="fill:none;stroke-width:1.2;stroke-linecap:butt;stroke-linejoin:miter;stroke:rgb(0%,0%,0%);stroke-opacity:1;stroke-miterlimit:10;" d="M 203.695312 148.648438 L 180.433594 159.207031 "/>
<path style="fill:none;stroke-width:1.2;stroke-linecap:butt;stroke-linejoin:miter;stroke:rgb(0%,0%,0%);stroke-opacity:1;stroke-miterlimit:10;" d="M 212.816406 122.394531 L 209.707031 154.171875 "/>
<path style="fill:none;stroke-width:1.2;stroke-linecap:butt;stroke-linejoin:miter;stroke:rgb(0%,0%,0%);stroke-opacity:1;stroke-miterlimit:10;" d="M 180.628906 167.367188 L 154.664062 148.785156 "/>
<path style="fill:none;stroke-width:1.2;stroke-linecap:butt;stroke-linejoin:miter;stroke:rgb(0%,0%,0%);stroke-opacity:1;stroke-miterlimit:10;" d="M 154.664062 148.785156 L 157.773438 117.007812 "/>
<path style="fill:none;stroke-width:1.2;stroke-linecap:butt;stroke-linejoin:miter;stroke:rgb(0%,0%,0%);stroke-opacity:1;stroke-miterlimit:10;" d="M 162.453125 146.339844 L 164.941406 120.917969 "/>
<path style="fill:none;stroke-width:1.2;stroke-linecap:butt;stroke-linejoin:miter;stroke:rgb(0%,0%,0%);stroke-opacity:1;stroke-miterlimit:10;" d="M 157.773438 117.007812 L 186.847656 103.8125 "/>
<path style="fill:none;stroke-width:1.2;stroke-linecap:butt;stroke-linejoin:miter;stroke:rgb(0%,0%,0%);stroke-opacity:1;stroke-miterlimit:10;" d="M 157.773438 117.007812 L 131.804688 98.425781 "/>
<path style="fill:none;stroke-width:1.2;stroke-linecap:butt;stroke-linejoin:miter;stroke:rgb(0%,0%,0%);stroke-opacity:1;stroke-miterlimit:10;" d="M 186.847656 103.8125 L 212.816406 122.394531 "/>
<path style="fill:none;stroke-width:1.2;stroke-linecap:butt;stroke-linejoin:miter;stroke:rgb(0%,0%,0%);stroke-opacity:1;stroke-miterlimit:10;" d="M 185.074219 111.777344 L 205.847656 126.644531 "/>
<path style="fill:none;stroke-width:1.2;stroke-linecap:butt;stroke-linejoin:miter;stroke:rgb(0%,0%,0%);stroke-opacity:1;stroke-miterlimit:10;" d="M 131.804688 98.425781 L 134.914062 66.644531 "/>
<path style="fill:none;stroke-width:1.2;stroke-linecap:butt;stroke-linejoin:miter;stroke:rgb(0%,0%,0%);stroke-opacity:1;stroke-miterlimit:10;" d="M 124.640625 94.515625 L 127.125 69.09375 "/>
<path style="fill:none;stroke-width:1.2;stroke-linecap:butt;stroke-linejoin:miter;stroke:rgb(0%,0%,0%);stroke-opacity:1;stroke-miterlimit:10;" d="M 102.730469 111.621094 L 131.804688 98.425781 "/>
<path style="fill:none;stroke-width:1.2;stroke-linecap:butt;stroke-linejoin:miter;stroke:rgb(0%,0%,0%);stroke-opacity:1;stroke-miterlimit:10;" d="M 134.914062 66.644531 L 121.933594 57.355469 "/>
<path style="fill:none;stroke-width:1.2;stroke-linecap:butt;stroke-linejoin:miter;stroke:rgb(0%,0%,100%);stroke-opacity:1;stroke-miterlimit:10;" d="M 121.933594 57.355469 L 108.949219 48.0625 "/>
<path style="fill:none;stroke-width:1.2;stroke-linecap:butt;stroke-linejoin:miter;stroke:rgb(0%,0%,100%);stroke-opacity:1;stroke-miterlimit:10;" d="M 108.949219 48.0625 L 94.410156 54.664062 "/>
<path style="fill:none;stroke-width:1.2;stroke-linecap:butt;stroke-linejoin:miter;stroke:rgb(0%,0%,0%);stroke-opacity:1;stroke-miterlimit:10;" d="M 94.410156 54.664062 L 79.871094 61.261719 "/>
<path style="fill:none;stroke-width:1.2;stroke-linecap:butt;stroke-linejoin:miter;stroke:rgb(0%,0%,100%);stroke-opacity:1;stroke-miterlimit:10;" d="M 109.144531 56.226562 L 97.515625 61.503906 "/>
<path style="fill:none;stroke-width:1.2;stroke-linecap:butt;stroke-linejoin:miter;stroke:rgb(0%,0%,0%);stroke-opacity:1;stroke-miterlimit:10;" d="M 97.515625 61.503906 L 85.886719 66.78125 "/>
<path style=" stroke:none;fill-rule:nonzero;fill:rgb(100%,100%,100%);fill-opacity:1;" d="M 103.949219 40.0625 L 113.949219 40.0625 L 113.949219 56.0625 L 103.949219 56.0625 Z M 103.949219 40.0625 "/>
<g style="fill:rgb(0%,0%,100%);fill-opacity:1;">
  <use xlink:href="#glyph0-1" x="103.949219" y="52.438477"/>
</g>
<path style="fill:none;stroke-width:1.2;stroke-linecap:butt;stroke-linejoin:miter;stroke:rgb(0%,0%,0%);stroke-opacity:1;stroke-miterlimit:10;" d="M 79.871094 61.261719 L 78.316406 77.152344 "/>
<path style="fill:none;stroke-width:1.2;stroke-linecap:butt;stroke-linejoin:miter;stroke:rgb(0%,0%,100%);stroke-opacity:1;stroke-miterlimit:10;" d="M 78.316406 77.152344 L 76.761719 93.039062 "/>
<path style="fill:none;stroke-width:1.2;stroke-linecap:butt;stroke-linejoin:miter;stroke:rgb(0%,0%,100%);stroke-opacity:1;stroke-miterlimit:10;" d="M 76.761719 93.039062 L 89.746094 102.332031 "/>
<path style="fill:none;stroke-width:1.2;stroke-linecap:butt;stroke-linejoin:miter;stroke:rgb(0%,0%,0%);stroke-opacity:1;stroke-miterlimit:10;" d="M 89.746094 102.332031 L 102.730469 111.621094 "/>
<path style="fill:none;stroke-width:1.2;stroke-linecap:butt;stroke-linejoin:miter;stroke:rgb(0%,0%,100%);stroke-opacity:1;stroke-miterlimit:10;" d="M 83.730469 88.789062 L 94.117188 96.222656 "/>
<path style="fill:none;stroke-width:1.2;stroke-linecap:butt;stroke-linejoin:miter;stroke:rgb(0%,0%,0%);stroke-opacity:1;stroke-miterlimit:10;" d="M 94.117188 96.222656 L 104.503906 103.652344 "/>
<path style=" stroke:none;fill-rule:nonzero;fill:rgb(100%,100%,100%);fill-opacity:1;" d="M 71.761719 85.039062 L 81.761719 85.039062 L 81.761719 101.039062 L 71.761719 101.039062 Z M 71.761719 85.039062 "/>
<g style="fill:rgb(0%,0%,100%);fill-opacity:1;">
  <use xlink:href="#glyph0-1" x="71.761719" y="97.415039"/>
</g>
<path style="fill:none;stroke-width:1.2;stroke-linecap:butt;stroke-linejoin:miter;stroke:rgb(0%,0%,0%);stroke-opacity:1;stroke-miterlimit:10;" d="M 102.730469 111.621094 L 101.175781 127.511719 "/>
<path style="fill:none;stroke-width:1.2;stroke-linecap:butt;stroke-linejoin:miter;stroke:rgb(0%,0%,100%);stroke-opacity:1;stroke-miterlimit:10;" d="M 101.175781 127.511719 L 99.621094 143.402344 "/>
<path style="fill:none;stroke-width:1.2;stroke-linecap:butt;stroke-linejoin:miter;stroke:rgb(0%,0%,100%);stroke-opacity:1;stroke-miterlimit:10;" d="M 99.621094 143.402344 L 85.082031 150 "/>
<path style="fill:none;stroke-width:1.2;stroke-linecap:butt;stroke-linejoin:miter;stroke:rgb(0%,0%,0%);stroke-opacity:1;stroke-miterlimit:10;" d="M 85.082031 150 L 70.542969 156.597656 "/>
<path style=" stroke:none;fill-rule:nonzero;fill:rgb(100%,100%,100%);fill-opacity:1;" d="M 89.621094 135.402344 L 109.621094 135.402344 L 109.621094 151.402344 L 89.621094 151.402344 Z M 89.621094 135.402344 "/>
<g style="fill:rgb(0%,0%,100%);fill-opacity:1;">
  <use xlink:href="#glyph0-1" x="89.621094" y="147.77832"/>
  <use xlink:href="#glyph0-3" x="99.59082" y="147.77832"/>
</g>
<path style="fill:none;stroke-width:1.2;stroke-linecap:butt;stroke-linejoin:miter;stroke:rgb(0%,0%,0%);stroke-opacity:1;stroke-miterlimit:10;" d="M 70.542969 156.597656 L 67.433594 188.378906 "/>
<path style="fill:none;stroke-width:1.2;stroke-linecap:butt;stroke-linejoin:miter;stroke:rgb(0%,0%,0%);stroke-opacity:1;stroke-miterlimit:10;" d="M 67.433594 188.378906 L 38.359375 201.574219 "/>
<path style="fill:none;stroke-width:1.2;stroke-linecap:butt;stroke-linejoin:miter;stroke:rgb(0%,0%,0%);stroke-opacity:1;stroke-miterlimit:10;" d="M 67.632812 196.539062 L 44.371094 207.097656 "/>
<path style="fill:none;stroke-width:1.2;stroke-linecap:butt;stroke-linejoin:miter;stroke:rgb(0%,0%,0%);stroke-opacity:1;stroke-miterlimit:10;" d="M 93.402344 206.960938 L 67.433594 188.378906 "/>
<path style="fill:none;stroke-width:1.2;stroke-linecap:butt;stroke-linejoin:miter;stroke:rgb(0%,0%,0%);stroke-opacity:1;stroke-miterlimit:10;" d="M 38.359375 201.574219 L 36.804688 217.464844 "/>
<path style="fill:none;stroke-width:1.2;stroke-linecap:butt;stroke-linejoin:miter;stroke:rgb(0%,0%,100%);stroke-opacity:1;stroke-miterlimit:10;" d="M 36.804688 217.464844 L 35.25 233.355469 "/>
<path style="fill:none;stroke-width:1.2;stroke-linecap:butt;stroke-linejoin:miter;stroke:rgb(0%,0%,100%);stroke-opacity:1;stroke-miterlimit:10;" d="M 35.25 233.355469 L 48.234375 242.644531 "/>
<path style="fill:none;stroke-width:1.2;stroke-linecap:butt;stroke-linejoin:miter;stroke:rgb(0%,0%,0%);stroke-opacity:1;stroke-miterlimit:10;" d="M 48.234375 242.644531 L 61.21875 251.9375 "/>
<path style="fill:none;stroke-width:1.2;stroke-linecap:butt;stroke-linejoin:miter;stroke:rgb(0%,0%,100%);stroke-opacity:1;stroke-miterlimit:10;" d="M 42.21875 229.101562 L 52.605469 236.535156 "/>
<path style="fill:none;stroke-width:1.2;stroke-linecap:butt;stroke-linejoin:miter;stroke:rgb(0%,0%,0%);stroke-opacity:1;stroke-miterlimit:10;" d="M 52.605469 236.535156 L 62.992188 243.96875 "/>
<path style=" stroke:none;fill-rule:nonzero;fill:rgb(100%,100%,100%);fill-opacity:1;" d="M 30.25 225.355469 L 40.25 225.355469 L 40.25 241.355469 L 30.25 241.355469 Z M 30.25 225.355469 "/>
<g style="fill:rgb(0%,0%,100%);fill-opacity:1;">
  <use xlink:href="#glyph0-1" x="30.25" y="237.731445"/>
</g>
<path style="fill:none;stroke-width:1.2;stroke-linecap:butt;stroke-linejoin:miter;stroke:rgb(0%,0%,0%);stroke-opacity:1;stroke-miterlimit:10;" d="M 61.21875 251.9375 L 90.292969 238.738281 "/>
<path style="fill:none;stroke-width:1.2;stroke-linecap:butt;stroke-linejoin:miter;stroke:rgb(0%,0%,0%);stroke-opacity:1;stroke-miterlimit:10;" d="M 90.292969 238.738281 L 93.402344 206.960938 "/>
<path style="fill:none;stroke-width:1.2;stroke-linecap:butt;stroke-linejoin:miter;stroke:rgb(0%,0%,0%);stroke-opacity:1;stroke-miterlimit:10;" d="M 83.125 234.828125 L 85.613281 209.40625 "/>
</g>
</svg>

<svg xmlns="http://www.w3.org/2000/svg" xmlns:xlink="http://www.w3.org/1999/xlink" width="300pt" height="300pt" viewBox="0 0 300 300"><defs><symbol overflow="visible"><path d="M.64 2.297v-11.47h6.5v11.47zm.735-.72h5.047V-8.436H1.375zm0 0"/></symbol><symbol overflow="visible" id="a"><path d="M1.28-9.484H3l4.203 7.937v-7.937h1.25V0H6.72L2.515-7.922V0H1.28zm0 0"/></symbol><symbol overflow="visible" id="b"><path d="M5.125-8.61c-.938 0-1.684.352-2.234 1.047-.542.688-.812 1.633-.812 2.83 0 1.198.27 2.147.813 2.842.55.687 1.297 1.03 2.235 1.03.926 0 1.66-.343 2.203-1.03.55-.696.828-1.645.828-2.844 0-1.196-.277-2.14-.828-2.829-.543-.695-1.277-1.046-2.203-1.046zm0-1.046c1.32 0 2.38.45 3.172 1.344.8.898 1.203 2.09 1.203 3.578 0 1.5-.402 2.7-1.203 3.593C7.504-.255 6.445.186 5.125.186c-1.336 0-2.402-.44-3.203-1.328C1.13-2.036.734-3.235.734-4.735c0-1.49.395-2.68 1.188-3.579.8-.894 1.867-1.343 3.203-1.343zm0 0"/></symbol><symbol overflow="visible" id="c"><path d="M1.28-9.484h1.282v3.89H7.22v-3.89H8.5V0H7.22v-4.516H2.562V0H1.28zm0 0"/></symbol></defs><g><path fill="#fff" d="M0 0h300v300H0z"/><path d="M258.53 223.117l-12.983-9.293" stroke-width="1.2" stroke="#000" stroke-miterlimit="10" fill="none"/><path d="M245.547 213.824l-12.98-9.29M232.566 204.535l-14.54 6.598" stroke-width="1.2" stroke="#00f" stroke-miterlimit="10" fill="none"/><path d="M218.027 211.133l-14.54 6.597" stroke-width="1.2" stroke="#000" stroke-miterlimit="10" fill="none"/><path d="M232.566 204.535l1.555-15.89" stroke-width="1.2" stroke="#00f" stroke-miterlimit="10" fill="none"/><path d="M234.12 188.645l1.556-15.89" stroke-width="1.2" stroke="#000" stroke-miterlimit="10" fill="none"/><path d="M227.566 196.535h10v16h-10zm0 0" fill="#fff"/><use xlink:href="#a" x="227.566" y="208.911" fill="#00f"/><path d="M237.227 176.176l14.54-6.598" stroke-width="1.2" stroke="#000" stroke-miterlimit="10" fill="none"/><path d="M251.766 169.578l14.535-6.6" stroke-width="1.2" stroke="#f00" stroke-miterlimit="10" fill="none"/><path d="M234.12 169.332l14.54-6.598" stroke-width="1.2" stroke="#000" stroke-miterlimit="10" fill="none"/><path d="M248.66 162.734l14.54-6.597" stroke-width="1.2" stroke="#f00" stroke-miterlimit="10" fill="none"/><path d="M235.676 172.754l-25.97-18.582" stroke-width="1.2" stroke="#000" stroke-miterlimit="10" fill="none"/><path d="M259.75 151.56h11v16h-11zm0 0" fill="#fff"/><use xlink:href="#b" x="259.75" y="163.935" fill="#f00"/><path d="M209.707 154.172l-29.078 13.195M203.695 148.648l-23.26 10.56M212.816 122.395l-3.11 31.777M180.63 167.367l-25.966-18.582M154.664 148.785l3.11-31.777M162.453 146.34l2.488-25.422M157.773 117.008l29.075-13.195M157.773 117.008l-25.968-18.582M186.848 103.813l25.968 18.582M185.074 111.777l20.774 14.868M131.805 98.426l3.11-31.78M124.64 94.516l2.485-25.422M102.73 111.62l29.075-13.194M134.914 66.645l-12.98-9.29" stroke-width="1.2" stroke="#000" stroke-miterlimit="10" fill="none"/><path d="M121.934 57.355l-12.985-9.292M108.95 48.063l-14.54 6.6" stroke-width="1.2" stroke="#00f" stroke-miterlimit="10" fill="none"/><path d="M94.41 54.664l-14.54 6.598" stroke-width="1.2" stroke="#000" stroke-miterlimit="10" fill="none"/><path d="M109.145 56.227l-11.63 5.277" stroke-width="1.2" stroke="#00f" stroke-miterlimit="10" fill="none"/><path d="M97.516 61.504l-11.63 5.277" stroke-width="1.2" stroke="#000" stroke-miterlimit="10" fill="none"/><path d="M103.95 40.063h10v16h-10zm0 0" fill="#fff"/><use xlink:href="#a" x="103.949" y="52.438" fill="#00f"/><path d="M79.87 61.262l-1.554 15.89" stroke-width="1.2" stroke="#000" stroke-miterlimit="10" fill="none"/><path d="M78.316 77.152L76.762 93.04M76.762 93.04l12.984 9.292" stroke-width="1.2" stroke="#00f" stroke-miterlimit="10" fill="none"/><path d="M89.746 102.332l12.984 9.29" stroke-width="1.2" stroke="#000" stroke-miterlimit="10" fill="none"/><path d="M83.73 88.79l10.387 7.433" stroke-width="1.2" stroke="#00f" stroke-miterlimit="10" fill="none"/><path d="M94.117 96.223l10.387 7.43" stroke-width="1.2" stroke="#000" stroke-miterlimit="10" fill="none"/><path d="M71.762 85.04h10v16h-10zm0 0" fill="#fff"/><use xlink:href="#a" x="71.762" y="97.415" fill="#00f"/><path d="M102.73 111.62l-1.554 15.892" stroke-width="1.2" stroke="#000" stroke-miterlimit="10" fill="none"/><path d="M101.176 127.512l-1.555 15.89M99.62 143.402L85.083 150" stroke-width="1.2" stroke="#00f" stroke-miterlimit="10" fill="none"/><path d="M85.082 150l-14.54 6.598" stroke-width="1.2" stroke="#000" stroke-miterlimit="10" fill="none"/><path d="M89.62 135.402h20v16h-20zm0 0" fill="#fff"/><g fill="#00f"><use xlink:href="#a" x="89.621" y="147.778"/><use xlink:href="#c" x="99.591" y="147.778"/></g><path d="M70.543 156.598l-3.11 31.78M67.434 188.38L38.36 201.573M67.633 196.54L44.37 207.097M93.402 206.96l-25.968-18.58M38.36 201.574l-1.555 15.89" stroke-width="1.2" stroke="#000" stroke-miterlimit="10" fill="none"/><path d="M36.805 217.465l-1.555 15.89M35.25 233.355l12.984 9.29" stroke-width="1.2" stroke="#00f" stroke-miterlimit="10" fill="none"/><path d="M48.234 242.645l12.985 9.292" stroke-width="1.2" stroke="#000" stroke-miterlimit="10" fill="none"/><path d="M42.22 229.102l10.385 7.433" stroke-width="1.2" stroke="#00f" stroke-miterlimit="10" fill="none"/><path d="M52.605 236.535l10.387 7.434" stroke-width="1.2" stroke="#000" stroke-miterlimit="10" fill="none"/><path d="M30.25 225.355h10v16h-10zm0 0" fill="#fff"/><use xlink:href="#a" x="30.25" y="237.731" fill="#00f"/><path d="M61.22 251.938l29.073-13.2M90.293 238.738l3.11-31.777M83.125 234.828l2.488-25.422" stroke-width="1.2" stroke="#000" stroke-miterlimit="10" fill="none"/></g></svg>
